!!!!SEGMENT: pl-sa--549-a-ix-29--035_walnski-jan--mazur.krn
!!!cenid: 18xx:489
!!!COM: Wański, Jan
!!!COM-rismid: pe30003295
!!!CDT: ~1800-1888/04
!!!CNT: Polish
!!!OTL: Mazur
!!!PDT:
!!!AGN: Secular; Mazurka
!!!SMS-siglum: PL-SA
!!!SMS-shelfmark: 549/A IX 29
!!!SMS-shelfwork: 035 W
!!!SMS-variant:
!!!SMS-altvar:
!!!NIFC-rismid: 1001068926
!!!URL-scan: http://bc.bdsandomierz.pl/dlibra/publication/1441/edition/1409/content
!!!ONB-nifc: Str. 24 (s. 5) – str. 25 (s. 2)
!!!AIN: 1 piano
!!!key: D
**kern	**kern	**dynam
*group1	*group1	*
*part1	*part1	*part1
*staff2	*staff1	*
*I"[Piano]	*I"[Piano]	*
*Ipiano	*Ipiano	*
*ICklav	*ICklav	*
*clefF4	*clefG2	*
*k[f#c#]	*k[f#c#]	*
*D:	*D:	*
*M3/8	*M3/8	*
*kcancel	*kcancel	*
*>[A,A,B,B,C,C,D,D]	*>[A,A,B,B,C,C,D,D]	*
=1	=1	=1
*>A	*>A	*
*	*ped	*
!	!	!LO:DY:rj
8DD/ 8D	16dd\LL	f
.	16ff#\	.
8D\L 8F#\ 8A\	16aa\	.
.	16gg#X\	.
8D\J 8F#\ 8A\	16bb\	.
.	16aa\JJ	.
=2	=2	=2
*tremolo	*	*
!	!LO:N:vis=8. : global	!
8D\ 8F#\ 8A\L	16gg#X\LL	.
.	16aa\	.
8D\ 8F#\ 8A\	16ee\	.
.	16ff#\J	.
8D\ 8F#\ 8A\J	8dd\J	.
=3	=3	=3
8C#\ 8E\ 8A\L	16cc#\LL	.
.	16ee\	.
8C#\ 8E\ 8A\	16aa\	.
.	16gg\	.
8C#\ 8E\ 8A\J	16ee\	.
.	16cc#\JJ	.
=4	=4	=4
8D\ 8F#\ 8A\L	16dd\LL	.
.	16ff#\	.
8D\ 8F#\ 8A\	16bb\	.
.	16aa\J	.
8D\ 8F#\ 8A\J	8aa\J	.
*Xtremolo	*	*
=5	=5	=5
8DD/ 8D	16dd\LL	.
.	16ff#\	.
8D\L 8F#\ 8A\	16aa\	.
.	16gg#X\	.
8D\J 8F#\ 8A\	16bb\	.
.	16aa\JJ	.
=6	=6	=6
*tremolo	*	*
8D\ 8F# 8A\L	16gg#X\LL	.
.	16aa\	.
8D\ 8F# 8A\	16ee\	.
.	16ff#\J	.
8D\ 8F# 8A\J	8dd\J	.
=7	=7	=7
8C#\ 8E\ 8A\L	16cc#\LL	.
.	16ee\	.
8C#\ 8E\ 8A\	16aa\	.
.	16gg\	.
8C#\ 8E\ 8A\J	16ee\	.
.	16cc#\JJ	.
*Xtremolo	*	*
=8	=8	=8
8D\ 8F#\ 8A\	16ee\LL	.
.	16dd\JJ	.
4D\ 4F#\ 4A\	4dd\	.
=9:|!|:	=9:|!|:	=9:|!|:
*>B	*>B	*
*tremolo	*	*
8E\ 8G\ 8A\L	16cc#\LL	.
.	16ee\	.
8E\ 8G\ 8A\	16dd\	.
.	16cc#\	.
8E\ 8G\ 8A\J	16b\	.
.	16a\JJ	.
!!LO:LB:g=original
=10	=10	=10
8D\ 8F#\ 8A\L	16a\LL	.
.	16dd\JJ	.
8D\ 8F#\ 8A\	4dd\	.
8D\ 8F#\ 8A\J	.	.
=11	=11	=11
8C#\ 8E\ 8A\L	16ee\LL	.
.	16ff#\	.
8C#\ 8E\ 8A\	16gg\	.
.	16ff#\	.
8C#\ 8E\ 8A\J	16gg\	.
.	16ee\JJ	.
=12	=12	=12
8D\ 8F#\ 8A\L	16gg\LL	.
.	16ff#\	.
8D\ 8F#\ 8A\	16bb\	.
.	16aa\J	.
8D\ 8F#\ 8A\J	8aa\J	.
*Xtremolo	*	*
=13	=13	=13
8DD/ 8D	16dd\LL	.
.	16ff#\	.
8D\L 8F#\ 8A\	16aa\	.
.	16gg#X\	.
8D\J 8F#\ 8A\	16bb\	.
.	16aa\JJ	.
=14	=14	=14
*tremolo	*	*
8D\ 8F#\ 8A\L	16gg#X\LL	.
.	16aa\	.
8D\ 8F#\ 8A\	16ee\	.
.	16ff#\J	.
8D\ 8F#\ 8A\J	8dd\J	.
=15	=15	=15
8C#\ 8E\ 8A\L	16cc#\LL	.
.	16ee\	.
8C#\ 8E\ 8A\	16aa\	.
.	16gg\	.
8C#\ 8E\ 8A\J	16ee\	.
.	16cc#\JJ	.
=16	=16	=16
8D\ 8F#\ 8A\L	16ee\LL	.
.	16dd\JJ	.
8D\ 8F#\ 8A\	4dd\	.
8D\ 8F#\ 8A\J	.	.
*Xtremolo	*	*
*clefG2	*	*
=17:|!|:;>	=17:|!|:;>	=17:|!|:
*>C	*>C	*
*k[f#]	*k[f#]	*
.	8qaa/	.
16e/LL	16gg\LL	.
16dd/	16ff#\	.
16b/	16gg\	.
16dd/	16aa\	.
16b/	16bb\	.
16dd/JJ	16ccc\JJ	.
=18	=18	=18
*rep	*	*
16e/LL	16eee\LL	.
16dd/	16ddd\	.
16b/	16ccc#X\	.
16dd/	16ddd\	.
16b/	16bb\	.
16dd/JJ	16gg\JJ	.
*Xrep	*	*
!!LO:PB:g=original
=19	=19	=19
16d/LL	16ff#\LL	.
16dd/	16aa\	.
16a/	16ddd\	.
16dd/	16ccc\	.
16cc/	16aa\	.
16dd/JJ	16ff#\JJ	.
=20	=20	=20
*tremolo	*	*
16g/ 16b/LL	16gg\LL	.
16dd/	16bb\	.
16g/ 16b/	16eee\	.
16dd/	16ddd\J	.
16g/ 16b/	8ddd\J	.
16dd/JJ	.	.
*Xtremolo	*	*
=21	=21	=21
.	8qaa/	.
16g\LL	16gg\LL	.
16dd\	16ff#\	.
16b\	16gg\	.
16dd\	16aa\	.
16b\	16bb\	.
16dd\JJ	16ccc\JJ	.
=22	=22	=22
*rep	*	*
16g\LL	16eee\LL	.
16dd\	16ddd\	.
16b\	16ccc#X\	.
16dd\	16ddd\	.
16b\	16bb\	.
16dd\JJ	16gg\JJ	.
*Xrep	*	*
=23	=23	=23
16d/LL	16ff#\LL	.
16dd/	16aa\	.
16a/	16ddd\	.
16dd/	16ccc\	.
16cc/	16aa\	.
16dd/JJ	16ff#\JJ	.
=24	=24	=24
8g/ 8b/	16aa\LL	.
.	16gg\JJ	.
4g/ 4b/	4gg\	.
!LO:CL:ed	!	!
*clefF4	*	*
=25:|!|:	=25:|!|:	=25:|!|:
*>D	*>D	*
*tremolo	*	*
16A\LL 16c\	16ff#\LL	.
16d\	16aa\	.
16A\ 16c\	16gg\	.
16d\	16ff#\	.
16A\ 16c\	16ee\	.
16d\JJ	16dd\JJ	.
=26	=26	=26
16G\LL 16B\	16dd\LL	.
16d\	16gg\JJ	.
16G\ 16B\	4gg\	.
16d\	.	.
16G\ 16B\	.	.
16d\JJ	.	.
=27	=27	=27
16F#\ 16A\LL	16aa\LL	.
16d\	16bb\	.
16F#\ 16A\	16ccc\	.
16d\	16ddd\	.
16F# 16A\	16ccc\	.
16d\JJ	16aa\JJ	.
!!LO:LB:g=original
=28	=28	=28
!LO:TX:t=P:problem=all right&colon; global	!	!
16G\LL	16ccc\LL	.
16d\	16bb\	.
16G\	16ccc\	.
16d\	16ddd\J	.
16G\	8ddd\J	.
16d\JJ	.	.
*clefG2	*	*
=29	=29	=29
16g/LL	16gg\LL	.
16dd/	16bb\	.
16b/	16ddd\	.
16dd/	16bb\	.
16b/	16ddd\	.
16dd/JJ	16bb\JJ	.
=30	=30	=30
*rep	*	*
16g/LL	16eee\LL	.
16dd/	16ddd\	.
16b/	16ccc#X\	.
16dd/	16ddd\	.
16b/	16bb\	.
16dd/JJ	16gg\JJ	.
*Xrep	*	*
=31	=31	=31
16d/LL	16ff#\LL	.
16dd/	16aa\	.
16a/	16ddd\	.
16dd/	16ccc\	.
16cc/	16aa\	.
16dd/JJ	16ff#\JJ	.
=32	=32	=32
8g/ 8b/	16aa\LL	.
.	16gg\JJ	.
!	!LO:TX:b:t=Da Capo	!
4g/ 4b/	4gg\	.
=:|!	=:|!	=:|!
*-	*-	*-
!!!system-decoration: [{g1}]
!!!ENC: Anastazja Marusiak
!!!END: 2020-06-17
!!!EED: Jędrzej Mróz
!!!EEV: 2022-01-05
